X: 117
T:Hora Hadera
C:Nira and Nitzan Rabinovich 1972
O:Israeli
I: Dance taught by Shlomo and Dina Bachar
F: http://www.youtube.com/watch?v=IGHXVnHjXOk
F: http://www.youtube.com/watch?v=AnOY0C-k8gg
F: http://www.youtube.com/watch?v=FawuLnBBbrw
F: http://www.youtube.com/watch?v=hTGsiRU0C5s
Q:1/4=120
L:1/8
M:2/4
K:Bm
 "Bm" A B2 A   | "F#m"AG"Bm"GF | "F#m"A2 E2     | "G"D4      |\
 "G"D E2 D     | "D"FE"G"DC    | "Bm"B,4-       |B,4         |
%%sep 10 10
 "Bm"B, B,2 D  | FF F2         | B, B,2 D       |FE "Em"E2   |\
 "Bm"D E2 D    | DC "Em"B,E    | "Bm"D4-        |D4          |
 B, B,2 D      | FF F2         | B, B,2 D       |FE "Em"E2   |\
 "Bm"D E2 D    | DC B,C        | B,4-           |B,4         |
 A B2 A        | "F#m"AG "Bm"GF| F2 B2          | F4         |\
 A B2 A        | dcBA          | B4-            | B4         |
 A B2 A        | "F#m"AG"Bm"GF | "F#m"A2 "Em" E2| "G"D4      |\
 "G"D E2 D     | "Bm"FEDC      | B,4-           |B,4         |
 "D"A>G "G"G~A | "D"A>G "G"GA  | "D"A>G "G"GA   |"D"FE "G"D2 |\
 "D"F2 "G"G2   | "D"A2 "G"B2   | "D"Ad"G"cB     | "D"A4      |
 "D"A>G "G"GA  | "D"A>G "G"GA  | "D"A>G "G"GA   |"D"FE "G"D2 |\
 "G"D E2 D     | "D"FE "Bm"DC  | B,4-           |B,4         |
%%sep 10 10
K:Dm
 "Dm"D D2 F    | AA A2         | D D2 F         |AG "Gm"G2   |\
 "Dm"F G2 F    | FE "Gm"DG     | "Dm"F4-        |F4          |
 D D2 F        | AA A2         | D D2 F         |AG "Gm"G2   |\
 "Dm"F G2 F    | FE DE         | D4-            |D4          |
 c d2 c        | "Am"cB "Dm"BA | A2 d2          | A4         |\
 c d2 c        | fedc          | d4-            | d4         |
 "Dm"c d2 c    | "Am"cB"Dm"BA  | "Am"c2 "Gm"G2  | "Bb"F4     |\
 F G2 F        | "Dm"AGFE      | "Dm"D4-        |D4          |
 "F"c>B "Bb"B~c| "F"c>B "Bb"Bc | "F"c>B "Bb"Bc  |"F"AG "Bb"F2|\
 "F"A2 "Bb"B2  | "F"c2 "Bb"d2  | "F"cf"Bb"ed    | "F"c4      |
 "F"c>B "Bb"Bc | "F"c>B "Bb"Bc | "F"c>B "Bb"Bc  |"F"AG "Bb"F2|\
 "Bb"F G2 F    | "F"AG "Bb"FE  | "Bb"D4-        |"Bb"D4      |



